svgs/sharp-light/house.svg

<svg xmlns="http://www.w3.org/2000/svg" viewBox="0 0 576 512"><!--! Font Awesome Pro 6.6.0 by @fontawesome - https://fontawesome.com License - https://fontawesome.com/license (Commercial License) Copyright 2024 Fonticons, Inc. --><path d="M298.6 12L288 2.7 277.4 12 5.4 252l21.2 24L64 243l0 253 0 16 16 0 416 0 16 0 0-16 0-253 37.4 33 21.2-24L298.6 12zM96 480l0-265.3L288 45.3 480 214.7 480 480l-112 0 0-176 0-16-16 0-128 0-16 0 0 16 0 176L96 480zm144 0l0-160 96 0 0 160-96 0z"/></svg>

<svg xmlns="http://www.w3.org/2000/svg" viewBox="0 0 576 512"><!--! Font Awesome Pro 6.4.0 by @fontawesome - https://fontawesome.com License - https://fontawesome.com/license (Commercial License) Copyright 2023 Fonticons, Inc. --><path d="M298.6 12L288 2.7 277.4 12 5.4 252l21.2 24L64 243V496v16H80 496h16V496 243l37.4 33 21.2-24L298.6 12zM96 480V214.7L288 45.3 480 214.7V480H368V304 288H352 224 208v16V480H96zm144 0V320h96V480H240z"/></svg>
